X:1
T:Hard, Hard Times
M:3/4
L:1/4
K:C
 G| E CC/2-D/2| E G A| GE/2-D/2 C| C2 G| G A B| c G G| A F A| G2 G|\
 G A B| c G G| A F A| G2 G| A A A| A B c/2c/2| B G ^F| G C E| G3| B,3|\
 C2||
